X: 14253
T: Fusco
R: jig
M: 6/8
K: Dmajor
R: jig
M: 6/8
|:DEF EFG|FzF EFD|ADD BDD|ADG FGA|
dcd fec|dAB/c/ dAF|G2F/G/ AdF|1 E3 DEF:|2 E2G Adc||
|:dAG FD2|DGz DAD|BDA DGF|EAc ABc|
dAG FGF|DCE FD2|DCB, DGF|EAc AA/B/c|
dAG FD2|DGz DAD|BDA DGF|EAc ABc|
dAG FGF|DCE FB,2|DGA GDB,|CDC DCD||

